X: 3
T:Boys of Bluehill, The
M:4/4
L:1/8
R:Hornpipe
K:D
FG[|:BAFA D2FA|BABd e2de|faaf egfe|dfed B2dB|!
BAFA D2FA|BABd e2de|faaf egfe|1d2dd d2 FG:|2d2dd d2 fg|!
|:afdf a2gf|gfga b2ag|faaf egfe|dfed B2dB|!
BAFA D2FA|BABd e2de|faaf egfe|1d2dd d2 fg:|2d2dd d2 FG|]!
